X: 7434
T: Cloud Crown, The
R: polka
M: 2/4
K: Aminor
Ae ed/e/|fd e>e|f/e/d/c/ _B_B/c/|df eA|
Ae ed/e/|fd e>e|f/e/d/c/ _B/c/d|d^c A2:|:
Ac/B/ cA|c/B/c A>e|f/e/d/c/ _B_B/c/|d/e/f/d/ fe|
Ac/B/ Ac|c/B/c A>e|f/e/d/c/ _B/c/d|d^c A2:|

